**kern	**kern	**dynam
*part1	*part1	*part1
*staff2	*staff1	*
*I"Piano	*	*
*clefF4	*clefG2	*
*k[f#]	*k[f#]	*
*M2/4	*M2/4	*
=1	=1	=1
*^	*^	*
*	*^	*	*	*
!	!	!	!LO:TX:b:i:t=accel. e cresc.	!	!
!	!	!	!LO:TX:a:B:t=a Tempo appassionato.	!	!
4rA	4rddyy	[2GG\ [2D	[2bb^^	8b: 8dd:	mf
.	.	.	.	8r	.
.	.	.	.	(8qb/	.
[4g [4b	4d	.	.	(4dd)	.
=	=	=	=	=	=
2g] 2b]	4d#X	4GG\] 4D]	2bb]	4dd#X	<
.	4e	4rCC	.	4ee	.
*	*v	*v	*	*	*
=	=	=	=	=
4rA	4AA 4A	4rff	4ffn)	[
!	!	!LO:TX:a:B:t=rall.	!	!
.	.	(8qff#X/	.	ff
*clefG2	*	*	*	*
[4f#^^ [4a [4cc	(4d:	[4ff#^^) [4ccc	4rddyy	.
=	=	=	=	=
2f#] 2a] 2cc]	4e	2ff#] 2ccc]	4ee	>
.	4d)	.	[4dd	.
*v	*v	*	*	*
*clefF4	*	*	*
=	=	=	=
*^	*	*	*
*	*^	*	*	*
!	!	!	!LO:TX:b:i:t=accel. e cresc.	!	!
!	!	!	!LO:TX:a:B:t=a Tempo.	!	!
4rA	4rddyy	[2GG\ [2D	[2bb^^	4dd]	]
.	.	.	.	(8qb/	.
[4g [4b	4d	.	.	4dd)	.
=	=	=	=	=	=
2g] 2b]	4d#X	4GG\] 4D]	2bb]	4dd#X	<
.	4e	4rCC	.	4ee	.
*	*v	*v	*	*	*
=	=	=	=	=
4rA	4AA 4A	4rff	4ffn	[
.	.	(8qff#X/	.	ff
*clefG2	*	*	*	*
[4f#^^: [4a: [4cc:	(4d	[4ff#^^) [4ccc	4rddyy	.
=	=	=	=	=
2f#] 2a] 2cc]	4e	2ff#] 2ccc]	(4ee	>
.	4d)	.	4dd)	.
*v	*v	*	*	*
*	*v	*v	*
=	=	=
*-	*-	*-
!!!system-decoration: {(s1,s2)}
